vectors/amphenol.com/amphenol.svg

<svg clip-rule="evenodd" fill-rule="evenodd" stroke-linejoin="round" stroke-miterlimit="2" version="1.1" viewBox="0 -.0002113 210 39.93" xml:space="preserve" xmlns="http://www.w3.org/2000/svg">
    <g transform="translate(0 -.035211)">
        <path d="m6.877 31.092h-6.877l11.092-31.057h7.468l11.017 31.057h-7.098l-1.997-6.434h-11.461l-2.144 6.434zm3.845-11.757h7.912l-3.771-12.275h-0.074l-4.067 12.275z" fill="#005cb9" fill-rule="nonzero"/>
    </g>
    <g transform="translate(0 -.035211)">
        <path d="m66.549 31.092h-6.137v-13.976c0-3.401-1.553-4.51-3.327-4.51-3.032 0-4.141 1.996-4.141 4.732v13.754h-6.138v-13.902c0-1.922 0-4.658-3.697-4.658-2.884 0-3.771 1.996-3.771 4.51v14.05h-6.063v-23.071h5.841v3.402h0.074c0.814-1.479 2.514-3.993 6.581-3.993 3.328 0 4.88 1.183 6.433 3.697 0.814-1.109 2.514-3.697 6.211-3.697 4.585 0 8.134 2.662 8.134 7.69v15.972z" fill="#005cb9" fill-rule="nonzero"/>
    </g>
    <g transform="translate(0 -.035211)">
        <path d="m78.232 11.349h0.074c1.109-1.849 2.81-3.919 6.803-3.919 5.028 0 9.465 3.919 9.465 11.831 0 6.285-2.81 12.348-9.613 12.348-4.215 0-5.693-2.292-6.433-3.549h-0.074v11.905h-5.989v-31.944h5.767v3.328zm5.25 15.306c3.845 0 4.955-4.215 4.955-6.951 0-3.623-1.257-7.024-5.102-7.024-4.141 0-5.103 3.697-5.103 7.394 0 3.401 1.479 6.581 5.25 6.581z" fill="#005cb9" fill-rule="nonzero"/>
    </g>
    <g transform="translate(0 -.035211)">
        <path d="m119.79 31.092h-6.064v-13.976c0-1.701-0.074-4.51-3.919-4.51-2.662 0-4.732 1.848-4.732 5.324v13.162h-5.989v-31.057h5.989v11.018h0.074c0.739-1.923 3.327-3.623 6.655-3.623 4.51 0 7.986 2.662 7.986 7.69v15.972z" fill="#005cb9" fill-rule="nonzero"/>
    </g>
    <g transform="translate(0 -.035211)">
        <path d="m145.37 23.919c-1.627 5.398-6.285 7.173-10.278 7.173-6.581 0-11.609-3.032-11.609-12.275 0-2.736 0.961-11.387 11.165-11.387 4.585 0 11.018 2.144 11.018 12.348v1.035h-16.046c0.148 1.701 0.518 5.472 5.472 5.472 1.701 0 3.475-0.813 3.919-2.44h6.359v0.074zm-6.063-6.877c-0.37-3.623-2.736-4.732-4.733-4.732-2.883 0-4.436 1.775-4.806 4.732h9.539z" fill="#005cb9" fill-rule="nonzero"/>
    </g>
    <g transform="translate(0 -.035211)">
        <path d="m171.55 31.092h-5.989v-13.976c0-1.701-0.074-4.51-3.919-4.51-2.662 0-4.733 1.848-4.733 5.324v13.162h-6.063v-23.071h5.768v3.402h0.074c0.813-1.405 2.514-3.993 6.876-3.993 4.511 0 7.986 2.662 7.986 7.69v15.972z" fill="#005cb9" fill-rule="nonzero"/>
    </g>
    <g transform="translate(0 -.035211)">
        <path d="m187.82 31.092c-6.211 0-11.831-3.698-11.831-11.831 0-8.134 5.62-11.831 11.831-11.831s11.831 3.697 11.831 11.831c0 8.133-5.62 11.831-11.831 11.831zm0-18.708c-4.659 0-5.546 3.993-5.546 6.877 0 2.883 0.887 6.876 5.546 6.876 4.732 0 5.546-3.993 5.546-6.876 0-2.884-0.814-6.877-5.546-6.877z" fill="#005cb9" fill-rule="nonzero"/>
    </g>
    <g transform="translate(0 -.035211)">
        <rect x="204.08" y=".035" width="5.915" height="31.056" fill="#005cb9" fill-rule="nonzero"/>
    </g>
</svg>

<svg width="100%" height="100%" viewBox="0 0 210 40" version="1.1" xmlns="http://www.w3.org/2000/svg" xmlns:xlink="http://www.w3.org/1999/xlink" xml:space="preserve" xmlns:serif="http://www.serif.com/" style="fill-rule:evenodd;clip-rule:evenodd;stroke-linejoin:round;stroke-miterlimit:2;">
    <g transform="matrix(1,0,0,1,0,-0.0352113)">
        <path d="M6.877,31.092L0,31.092L11.092,0.035L18.56,0.035L29.577,31.092L22.479,31.092L20.482,24.658L9.021,24.658L6.877,31.092ZM10.722,19.335L18.634,19.335L14.863,7.06L14.789,7.06L10.722,19.335Z" style="fill:rgb(0,92,185);fill-rule:nonzero;"/>
    </g>
    <g transform="matrix(1,0,0,1,0,-0.0352113)">
        <path d="M66.549,31.092L60.412,31.092L60.412,17.116C60.412,13.715 58.859,12.606 57.085,12.606C54.053,12.606 52.944,14.602 52.944,17.338L52.944,31.092L46.806,31.092L46.806,17.19C46.806,15.268 46.806,12.532 43.109,12.532C40.225,12.532 39.338,14.528 39.338,17.042L39.338,31.092L33.275,31.092L33.275,8.021L39.116,8.021L39.116,11.423L39.19,11.423C40.004,9.944 41.704,7.43 45.771,7.43C49.099,7.43 50.651,8.613 52.204,11.127C53.018,10.018 54.718,7.43 58.415,7.43C63,7.43 66.549,10.092 66.549,15.12L66.549,31.092Z" style="fill:rgb(0,92,185);fill-rule:nonzero;"/>
    </g>
    <g transform="matrix(1,0,0,1,0,-0.0352113)">
        <path d="M78.232,11.349L78.306,11.349C79.415,9.5 81.116,7.43 85.109,7.43C90.137,7.43 94.574,11.349 94.574,19.261C94.574,25.546 91.764,31.609 84.961,31.609C80.746,31.609 79.268,29.317 78.528,28.06L78.454,28.06L78.454,39.965L72.465,39.965L72.465,8.021L78.232,8.021L78.232,11.349ZM83.482,26.655C87.327,26.655 88.437,22.44 88.437,19.704C88.437,16.081 87.18,12.68 83.335,12.68C79.194,12.68 78.232,16.377 78.232,20.074C78.232,23.475 79.711,26.655 83.482,26.655Z" style="fill:rgb(0,92,185);fill-rule:nonzero;"/>
    </g>
    <g transform="matrix(1,0,0,1,0,-0.0352113)">
        <path d="M119.789,31.092L113.725,31.092L113.725,17.116C113.725,15.415 113.651,12.606 109.806,12.606C107.144,12.606 105.074,14.454 105.074,17.93L105.074,31.092L99.085,31.092L99.085,0.035L105.074,0.035L105.074,11.053L105.148,11.053C105.887,9.13 108.475,7.43 111.803,7.43C116.313,7.43 119.789,10.092 119.789,15.12L119.789,31.092Z" style="fill:rgb(0,92,185);fill-rule:nonzero;"/>
    </g>
    <g transform="matrix(1,0,0,1,0,-0.0352113)">
        <path d="M145.373,23.919C143.746,29.317 139.088,31.092 135.095,31.092C128.514,31.092 123.486,28.06 123.486,18.817C123.486,16.081 124.447,7.43 134.651,7.43C139.236,7.43 145.669,9.574 145.669,19.778L145.669,20.813L129.623,20.813C129.771,22.514 130.141,26.285 135.095,26.285C136.796,26.285 138.57,25.472 139.014,23.845L145.373,23.845L145.373,23.919ZM139.31,17.042C138.94,13.419 136.574,12.31 134.577,12.31C131.694,12.31 130.141,14.085 129.771,17.042L139.31,17.042Z" style="fill:rgb(0,92,185);fill-rule:nonzero;"/>
    </g>
    <g transform="matrix(1,0,0,1,0,-0.0352113)">
        <path d="M171.549,31.092L165.56,31.092L165.56,17.116C165.56,15.415 165.486,12.606 161.641,12.606C158.979,12.606 156.908,14.454 156.908,17.93L156.908,31.092L150.845,31.092L150.845,8.021L156.613,8.021L156.613,11.423L156.687,11.423C157.5,10.018 159.201,7.43 163.563,7.43C168.074,7.43 171.549,10.092 171.549,15.12L171.549,31.092Z" style="fill:rgb(0,92,185);fill-rule:nonzero;"/>
    </g>
    <g transform="matrix(1,0,0,1,0,-0.0352113)">
        <path d="M187.817,31.092C181.606,31.092 175.986,27.394 175.986,19.261C175.986,11.127 181.606,7.43 187.817,7.43C194.028,7.43 199.648,11.127 199.648,19.261C199.648,27.394 194.028,31.092 187.817,31.092ZM187.817,12.384C183.158,12.384 182.271,16.377 182.271,19.261C182.271,22.144 183.158,26.137 187.817,26.137C192.549,26.137 193.363,22.144 193.363,19.261C193.363,16.377 192.549,12.384 187.817,12.384Z" style="fill:rgb(0,92,185);fill-rule:nonzero;"/>
    </g>
    <g transform="matrix(1,0,0,1,0,-0.0352113)">
        <rect x="204.085" y="0.035" width="5.915" height="31.056" style="fill:rgb(0,92,185);fill-rule:nonzero;"/>
    </g>
</svg>
